; generated by SuperSlicer 2.3.56 on 2022-04-06 at 00:40:20 UTC


;
;

;
;
; 

; external perimeters extrusion width = 0.42mm
; perimeters extrusion width = 0.45mm
; infill extrusion width = 0.60mm
; solid infill extrusion width = 0.45mm
; top infill extrusion width = 0.42mm
; first layer extrusion width = 0.80mm


;TYPE:Custom
M190 S0
M109 S0 ; uncomment to remove set&wait temp gcode added automatically after this start gcode
print_start EXTRUDER_TEMP=215 BED_TEMP=70 ; CHAMBER_TEMP=0
SET_FRAME_COMP enable=0
M107
G21 ; set units to millimeters
G90 ; use absolute coordinates
M83 ; use relative distances for extrusion
;LAYER_CHANGE
;Z:0.3
;HEIGHT:0.3
;BEFORE_LAYER_CHANGE
;0.3


G1 Z0.300000 F9000.000
;AFTER_LAYER_CHANGE
;0.3
M104 S215 ; set temperature
G1 E-0.60000 F3000.000
G1 Z1.300000 F9000.000
G1 X111.271 Y132.521
G1 Z0.300000
G1 E0.60000 F1800.000
;TYPE:Perimeter
;WIDTH:0.8
G1 F2718.797
G1 X233.729 Y132.521 E10.89847
G1 X233.729 Y212.479 E7.11606
G1 X111.271 Y212.479 E10.89847
G1 X111.271 Y132.581 E7.11072
G1 X111.171 Y131.847 F9000.000
G1 F2718.797
G1 X111.330 Y131.804 E0.01468
G1 X111.540 Y131.786 E0.01878
G1 X233.460 Y131.786 E10.85062
G1 X233.670 Y131.804 E0.01878
G1 X233.829 Y131.847 E0.01468
G1 X233.979 Y131.916 E0.01468
G1 X234.114 Y132.011 E0.01468
G1 X234.239 Y132.136 E0.01571
G1 X234.334 Y132.271 E0.01468
G1 X234.403 Y132.421 E0.01468
G1 X234.446 Y132.580 E0.01468
G1 X234.464 Y132.790 E0.01878
G1 X234.464 Y212.210 E7.06821
G1 X234.446 Y212.420 E0.01878
G1 X234.403 Y212.579 E0.01468
G1 X234.334 Y212.729 E0.01469
G1 X234.239 Y212.864 E0.01468
G1 X234.114 Y212.989 E0.01571
G1 X233.979 Y213.084 E0.01468
G1 X233.829 Y213.153 E0.01468
G1 X233.670 Y213.196 E0.01468
G1 X233.460 Y213.214 E0.01878
G1 X111.540 Y213.214 E10.85062
G1 X111.330 Y213.196 E0.01878
G1 X111.171 Y213.153 E0.01468
G1 X111.021 Y213.084 E0.01468
G1 X110.886 Y212.989 E0.01468
G1 X110.761 Y212.864 E0.01571
G1 X110.666 Y212.729 E0.01468
G1 X110.597 Y212.579 E0.01468
G1 X110.554 Y212.420 E0.01468
G1 X110.536 Y212.210 E0.01878
G1 X110.536 Y132.790 E7.06821
G1 X110.554 Y132.580 E0.01878
G1 X110.597 Y132.421 E0.01468
G1 X110.666 Y132.271 E0.01468
G1 X110.761 Y132.136 E0.01468
G1 X110.886 Y132.011 E0.01571
G1 X111.021 Y131.916 E0.01468
G1 X111.116 Y131.872 E0.00934
G1 X110.805 Y131.205 F9000.000
;TYPE:External perimeter
G1 F2718.797
G1 X110.906 Y131.159 E0.00985
G1 X110.929 Y131.150 E0.00222
G1 X111.184 Y131.081 E0.02351
G1 X111.208 Y131.076 E0.00222
G1 X111.516 Y131.050 E0.02748
G1 X233.484 Y131.050 E10.85490
G1 X233.792 Y131.076 E0.02748
G1 X233.816 Y131.081 E0.00222
G1 X234.071 Y131.150 E0.02351
G1 X234.094 Y131.159 E0.00222
G1 X234.356 Y131.282 E0.02572
G1 X234.572 Y131.434 E0.02351
G1 X234.592 Y131.449 E0.00221
G1 X234.801 Y131.658 E0.02636
G1 X234.816 Y131.678 E0.00221
G1 X234.968 Y131.894 E0.02351
G1 X235.091 Y132.156 E0.02572
G1 X235.100 Y132.179 E0.00222
G1 X235.169 Y132.434 E0.02351
G1 X235.174 Y132.458 E0.00221
G1 X235.200 Y132.766 E0.02748
G1 X235.200 Y212.234 E7.07248
G1 X235.174 Y212.542 E0.02748
G1 X235.169 Y212.566 E0.00221
G1 X235.100 Y212.821 E0.02351
G1 X235.091 Y212.844 E0.00222
G1 X234.968 Y213.106 E0.02572
G1 X234.816 Y213.322 E0.02351
G1 X234.801 Y213.342 E0.00221
G1 X234.592 Y213.551 E0.02636
G1 X234.572 Y213.566 E0.00221
G1 X234.356 Y213.718 E0.02351
G1 X234.094 Y213.841 E0.02572
G1 X234.071 Y213.850 E0.00222
G1 X233.816 Y213.919 E0.02351
G1 X233.792 Y213.924 E0.00222
G1 X233.484 Y213.950 E0.02748
G1 X111.516 Y213.950 E10.85490
G1 X111.208 Y213.924 E0.02748
G1 X111.184 Y213.919 E0.00222
G1 X110.929 Y213.850 E0.02351
G1 X110.906 Y213.841 E0.00222
G1 X110.644 Y213.718 E0.02572
G1 X110.428 Y213.566 E0.02351
G1 X110.408 Y213.551 E0.00221
G1 X110.199 Y213.342 E0.02636
G1 X110.184 Y213.322 E0.00221
G1 X110.032 Y213.106 E0.02351
G1 X109.909 Y212.844 E0.02572
G1 X109.900 Y212.821 E0.00222
G1 X109.831 Y212.566 E0.02351
G1 X109.826 Y212.542 E0.00222
G1 X109.800 Y212.234 E0.02748
G1 X109.800 Y132.766 E7.07248
G1 X109.826 Y132.458 E0.02748
G1 X109.831 Y132.434 E0.00222
G1 X109.900 Y132.179 E0.02351
G1 X109.909 Y132.156 E0.00222
G1 X110.032 Y131.894 E0.02572
G1 X110.184 Y131.678 E0.02351
G1 X110.199 Y131.658 E0.00221
G1 X110.408 Y131.449 E0.02636
G1 X110.428 Y131.434 E0.00221
G1 X110.644 Y131.282 E0.02351
G1 X110.666 Y131.270 E0.00222
G1 X110.751 Y131.231 E0.00832
G1 X110.896 Y131.269 F9000.000
G1 E-0.60000 F3000.000
G1 Z0.700000 F9000.000
G1 X233.508 Y134.229
G1 Z0.300000
G1 E0.60000 F1800.000
;TYPE:Solid infill
;WIDTH:0.797521
G1 F2700.000
G1 X232.352 Y133.073 E0.14504
G1 X231.312 Y133.073 E0.09230
G1 X233.177 Y134.938 E0.23404
G1 X233.177 Y135.979 E0.09230
G1 X230.271 Y133.073 E0.36457
G1 X229.231 Y133.073 E0.09230
G1 X233.177 Y137.019 E0.49510
G1 X233.177 Y138.059 E0.09230
G1 X228.191 Y133.073 E0.62563
G1 X227.151 Y133.073 E0.09230
G1 X233.177 Y139.099 E0.75616
G1 X233.177 Y140.140 E0.09230
G1 X226.110 Y133.073 E0.88669
G1 X225.070 Y133.073 E0.09230
G1 X233.177 Y141.180 E1.01723
G1 X233.177 Y142.220 E0.09230
G1 X224.030 Y133.073 E1.14776
G1 X222.989 Y133.073 E0.09230
G1 X233.177 Y143.261 E1.27829
G1 X233.177 Y144.301 E0.09230
G1 X221.949 Y133.073 E1.40882
G1 X220.909 Y133.073 E0.09230
G1 X233.177 Y145.341 E1.53935
G1 X233.177 Y146.382 E0.09230
G1 X219.868 Y133.073 E1.66988
G1 X218.828 Y133.073 E0.09230
G1 X233.177 Y147.422 E1.80041
G1 X233.177 Y148.462 E0.09230
G1 X217.788 Y133.073 E1.93095
G1 X216.747 Y133.073 E0.09230
G1 X233.177 Y149.503 E2.06148
G1 X233.177 Y150.543 E0.09230
G1 X215.707 Y133.073 E2.19201
G1 X214.667 Y133.073 E0.09230
G1 X233.177 Y151.583 E2.32254
G1 X233.177 Y152.624 E0.09230
G1 X213.626 Y133.073 E2.45307
G1 X212.586 Y133.073 E0.09230
G1 X233.177 Y153.664 E2.58360
G1 X233.177 Y154.704 E0.09230
G1 X211.546 Y133.073 E2.71413
G1 X210.505 Y133.073 E0.09230
G1 X233.177 Y155.745 E2.84467
G1 X233.177 Y156.785 E0.09230
G1 X209.465 Y133.073 E2.97520
G1 X208.425 Y133.073 E0.09230
G1 X233.177 Y157.825 E3.10573
G1 X233.177 Y158.866 E0.09230
G1 X207.384 Y133.073 E3.23626
G1 X206.344 Y133.073 E0.09230
G1 X233.177 Y159.906 E3.36679
G1 X233.177 Y160.946 E0.09230
G1 X205.304 Y133.073 E3.49732
G1 X204.263 Y133.073 E0.09230
G1 X233.177 Y161.987 E3.62785
G1 X233.177 Y163.027 E0.09230
G1 X203.223 Y133.073 E3.75839
G1 X202.183 Y133.073 E0.09230
G1 X233.177 Y164.067 E3.88892
G1 X233.177 Y165.108 E0.09230
G1 X201.142 Y133.073 E4.01945
G1 X200.102 Y133.073 E0.09230
G1 X233.177 Y166.148 E4.14998
G1 X233.177 Y167.188 E0.09230
G1 X199.062 Y133.073 E4.28051
G1 X198.021 Y133.073 E0.09230
G1 X233.177 Y168.229 E4.41104
G1 X233.177 Y169.269 E0.09230
G1 X196.981 Y133.073 E4.54158
G1 X195.941 Y133.073 E0.09230
G1 X233.177 Y170.309 E4.67211
G1 X233.177 Y171.349 E0.09230
G1 X194.901 Y133.073 E4.80264
G1 X193.860 Y133.073 E0.09230
G1 X233.177 Y172.390 E4.93317
G1 X233.177 Y173.430 E0.09230
G1 X192.820 Y133.073 E5.06370
G1 X191.780 Y133.073 E0.09230
G1 X233.177 Y174.470 E5.19423
G1 X233.177 Y175.511 E0.09230
G1 X190.739 Y133.073 E5.32476
G1 X189.699 Y133.073 E0.09230
G1 X233.177 Y176.551 E5.45530
G1 X233.177 Y177.591 E0.09230
G1 X188.659 Y133.073 E5.58583
G1 X187.618 Y133.073 E0.09230
G1 X233.177 Y178.632 E5.71636
G1 X233.177 Y179.672 E0.09230
G1 X186.578 Y133.073 E5.84689
G1 X185.538 Y133.073 E0.09230
G1 X233.177 Y180.712 E5.97742
G1 X233.177 Y181.753 E0.09230
G1 X184.497 Y133.073 E6.10795
G1 X183.457 Y133.073 E0.09230
G1 X233.177 Y182.793 E6.23848
G1 X233.177 Y183.833 E0.09230
G1 X182.417 Y133.073 E6.36902
G1 X181.376 Y133.073 E0.09230
G1 X233.177 Y184.874 E6.49955
G1 X233.177 Y185.914 E0.09230
G1 X180.336 Y133.073 E6.63008
G1 X179.296 Y133.073 E0.09230
G1 X233.177 Y186.954 E6.76061
G1 X233.177 Y187.995 E0.09230
G1 X178.255 Y133.073 E6.89114
G1 X177.215 Y133.073 E0.09230
G1 X233.177 Y189.035 E7.02167
G1 X233.177 Y190.075 E0.09230
G1 X176.175 Y133.073 E7.15220
G1 X175.134 Y133.073 E0.09230
G1 X233.177 Y191.116 E7.28274
G1 X233.177 Y192.156 E0.09230
G1 X174.094 Y133.073 E7.41327
G1 X173.054 Y133.073 E0.09230
G1 X233.177 Y193.196 E7.54380
G1 X233.177 Y194.237 E0.09230
G1 X172.013 Y133.073 E7.67433
G1 X170.973 Y133.073 E0.09230
G1 X233.177 Y195.277 E7.80486
G1 X233.177 Y196.317 E0.09230
G1 X169.933 Y133.073 E7.93539
G1 X168.892 Y133.073 E0.09230
G1 X233.177 Y197.358 E8.06592
G1 X233.177 Y198.398 E0.09230
G1 X167.852 Y133.073 E8.19646
G1 X166.812 Y133.073 E0.09230
G1 X233.177 Y199.438 E8.32699
G1 X233.177 Y200.479 E0.09230
G1 X165.771 Y133.073 E8.45752
G1 X164.731 Y133.073 E0.09230
G1 X233.177 Y201.519 E8.58805
G1 X233.177 Y202.559 E0.09230
G1 X163.691 Y133.073 E8.71858
G1 X162.651 Y133.073 E0.09230
G1 X233.177 Y203.599 E8.84911
G1 X233.177 Y204.640 E0.09230
G1 X161.610 Y133.073 E8.97964
G1 X160.570 Y133.073 E0.09230
G1 X233.177 Y205.680 E9.11018
G1 X233.177 Y206.720 E0.09230
G1 X159.530 Y133.073 E9.24071
G1 X158.489 Y133.073 E0.09230
G1 X233.177 Y207.761 E9.37124
G1 X233.177 Y208.801 E0.09230
G1 X157.449 Y133.073 E9.50177
G1 X156.409 Y133.073 E0.09230
G1 X233.177 Y209.841 E9.63230
G1 X233.177 Y210.882 E0.09230
G1 X155.368 Y133.073 E9.76283
G1 X154.328 Y133.073 E0.09230
G1 X233.177 Y211.922 E9.89336
G1 X233.177 Y211.927 E0.00044
G1 X232.142 Y211.927 E0.09186
G1 X153.288 Y133.073 E9.89399
G1 X152.247 Y133.073 E0.09230
G1 X231.101 Y211.927 E9.89399
G1 X230.061 Y211.927 E0.09230
G1 X151.207 Y133.073 E9.89399
G1 X150.167 Y133.073 E0.09230
G1 X229.021 Y211.927 E9.89399
G1 X227.980 Y211.927 E0.09230
G1 X149.126 Y133.073 E9.89399
G1 X148.086 Y133.073 E0.09230
G1 X226.940 Y211.927 E9.89399
G1 X225.900 Y211.927 E0.09230
G1 X147.046 Y133.073 E9.89399
G1 X146.005 Y133.073 E0.09230
G1 X224.859 Y211.927 E9.89399
G1 X223.819 Y211.927 E0.09230
G1 X144.965 Y133.073 E9.89399
G1 X143.925 Y133.073 E0.09230
G1 X222.779 Y211.927 E9.89399
G1 X221.739 Y211.927 E0.09230
G1 X142.884 Y133.073 E9.89399
G1 X141.844 Y133.073 E0.09230
G1 X220.698 Y211.927 E9.89399
G1 X219.658 Y211.927 E0.09230
G1 X140.804 Y133.073 E9.89399
G1 X139.763 Y133.073 E0.09230
G1 X218.618 Y211.927 E9.89399
G1 X217.577 Y211.927 E0.09230
G1 X138.723 Y133.073 E9.89399
G1 X137.683 Y133.073 E0.09230
G1 X216.537 Y211.927 E9.89399
G1 X215.497 Y211.927 E0.09230
G1 X136.642 Y133.073 E9.89399
G1 X135.602 Y133.073 E0.09230
G1 X214.456 Y211.927 E9.89399
G1 X213.416 Y211.927 E0.09230
G1 X134.562 Y133.073 E9.89399
G1 X133.521 Y133.073 E0.09230
G1 X212.376 Y211.927 E9.89399
G1 X211.335 Y211.927 E0.09230
G1 X132.481 Y133.073 E9.89399
G1 X131.441 Y133.073 E0.09230
G1 X210.295 Y211.927 E9.89399
G1 X209.255 Y211.927 E0.09230
G1 X130.401 Y133.073 E9.89399
G1 X129.360 Y133.073 E0.09230
G1 X208.214 Y211.927 E9.89399
G1 X207.174 Y211.927 E0.09230
G1 X128.320 Y133.073 E9.89399
G1 X127.280 Y133.073 E0.09230
G1 X206.134 Y211.927 E9.89399
G1 X205.093 Y211.927 E0.09230
G1 X126.239 Y133.073 E9.89399
G1 X125.199 Y133.073 E0.09230
G1 X204.053 Y211.927 E9.89399
G1 X203.013 Y211.927 E0.09230
G1 X124.159 Y133.073 E9.89399
G1 X123.118 Y133.073 E0.09230
G1 X201.972 Y211.927 E9.89399
G1 X200.932 Y211.927 E0.09230
G1 X122.078 Y133.073 E9.89399
G1 X121.038 Y133.073 E0.09230
G1 X199.892 Y211.927 E9.89399
G1 X198.851 Y211.927 E0.09230
G1 X119.997 Y133.073 E9.89399
G1 X118.957 Y133.073 E0.09230
G1 X197.811 Y211.927 E9.89399
G1 X196.771 Y211.927 E0.09230
G1 X117.917 Y133.073 E9.89399
G1 X116.876 Y133.073 E0.09230
G1 X195.730 Y211.927 E9.89399
G1 X194.690 Y211.927 E0.09230
G1 X115.836 Y133.073 E9.89399
G1 X114.796 Y133.073 E0.09230
G1 X193.650 Y211.927 E9.89399
G1 X192.609 Y211.927 E0.09230
G1 X113.755 Y133.073 E9.89399
G1 X112.715 Y133.073 E0.09230
G1 X191.569 Y211.927 E9.89399
G1 X190.529 Y211.927 E0.09230
G1 X111.823 Y133.221 E9.87539
G1 X111.823 Y134.261 E0.09230
G1 X189.489 Y211.927 E9.74486
G1 X188.448 Y211.927 E0.09230
G1 X111.823 Y135.302 E9.61433
G1 X111.823 Y136.342 E0.09230
G1 X187.408 Y211.927 E9.48380
G1 X186.368 Y211.927 E0.09230
G1 X111.823 Y137.382 E9.35327
G1 X111.823 Y138.423 E0.09230
G1 X185.327 Y211.927 E9.22274
G1 X184.287 Y211.927 E0.09230
G1 X111.823 Y139.463 E9.09221
G1 X111.823 Y140.503 E0.09230
G1 X183.247 Y211.927 E8.96167
G1 X182.206 Y211.927 E0.09230
G1 X111.823 Y141.544 E8.83114
G1 X111.823 Y142.584 E0.09230
G1 X181.166 Y211.927 E8.70061
G1 X180.126 Y211.927 E0.09230
G1 X111.823 Y143.624 E8.57008
G1 X111.823 Y144.665 E0.09230
G1 X179.085 Y211.927 E8.43955
G1 X178.045 Y211.927 E0.09230
G1 X111.823 Y145.705 E8.30902
G1 X111.823 Y146.745 E0.09230
G1 X177.005 Y211.927 E8.17849
G1 X175.964 Y211.927 E0.09230
G1 X111.823 Y147.786 E8.04795
G1 X111.823 Y148.826 E0.09230
G1 X174.924 Y211.927 E7.91742
G1 X173.884 Y211.927 E0.09230
G1 X111.823 Y149.866 E7.78689
G1 X111.823 Y150.907 E0.09230
G1 X172.843 Y211.927 E7.65636
G1 X171.803 Y211.927 E0.09230
G1 X111.823 Y151.947 E7.52583
G1 X111.823 Y152.987 E0.09230
G1 X170.763 Y211.927 E7.39530
G1 X169.722 Y211.927 E0.09230
G1 X111.823 Y154.028 E7.26477
G1 X111.823 Y155.068 E0.09230
G1 X168.682 Y211.927 E7.13423
G1 X167.642 Y211.927 E0.09230
G1 X111.823 Y156.108 E7.00370
G1 X111.823 Y157.149 E0.09230
G1 X166.601 Y211.927 E6.87317
G1 X165.561 Y211.927 E0.09230
G1 X111.823 Y158.189 E6.74264
G1 X111.823 Y159.229 E0.09230
G1 X164.521 Y211.927 E6.61211
G1 X163.480 Y211.927 E0.09230
G1 X111.823 Y160.270 E6.48158
G1 X111.823 Y161.310 E0.09230
G1 X162.440 Y211.927 E6.35105
G1 X161.400 Y211.927 E0.09230
G1 X111.823 Y162.350 E6.22051
G1 X111.823 Y163.391 E0.09230
G1 X160.359 Y211.927 E6.08998
G1 X159.319 Y211.927 E0.09230
G1 X111.823 Y164.431 E5.95945
G1 X111.823 Y165.471 E0.09230
G1 X158.279 Y211.927 E5.82892
G1 X157.239 Y211.927 E0.09230
G1 X111.823 Y166.511 E5.69839
G1 X111.823 Y167.552 E0.09230
G1 X156.198 Y211.927 E5.56786
G1 X155.158 Y211.927 E0.09230
G1 X111.823 Y168.592 E5.43733
G1 X111.823 Y169.632 E0.09230
G1 X154.118 Y211.927 E5.30679
G1 X153.077 Y211.927 E0.09230
G1 X111.823 Y170.673 E5.17626
G1 X111.823 Y171.713 E0.09230
G1 X152.037 Y211.927 E5.04573
G1 X150.997 Y211.927 E0.09230
G1 X111.823 Y172.753 E4.91520
G1 X111.823 Y173.794 E0.09230
G1 X149.956 Y211.927 E4.78467
G1 X148.916 Y211.927 E0.09230
G1 X111.823 Y174.834 E4.65414
G1 X111.823 Y175.874 E0.09230
G1 X147.876 Y211.927 E4.52361
G1 X146.835 Y211.927 E0.09230
G1 X111.823 Y176.915 E4.39307
G1 X111.823 Y177.955 E0.09230
G1 X145.795 Y211.927 E4.26254
G1 X144.755 Y211.927 E0.09230
G1 X111.823 Y178.995 E4.13201
G1 X111.823 Y180.036 E0.09230
G1 X143.714 Y211.927 E4.00148
G1 X142.674 Y211.927 E0.09230
G1 X111.823 Y181.076 E3.87095
G1 X111.823 Y182.116 E0.09230
G1 X141.634 Y211.927 E3.74042
G1 X140.593 Y211.927 E0.09230
G1 X111.823 Y183.157 E3.60989
G1 X111.823 Y184.197 E0.09230
G1 X139.553 Y211.927 E3.47935
G1 X138.513 Y211.927 E0.09230
G1 X111.823 Y185.237 E3.34882
G1 X111.823 Y186.278 E0.09230
G1 X137.472 Y211.927 E3.21829
G1 X136.432 Y211.927 E0.09230
G1 X111.823 Y187.318 E3.08776
G1 X111.823 Y188.358 E0.09230
G1 X135.392 Y211.927 E2.95723
G1 X134.351 Y211.927 E0.09230
G1 X111.823 Y189.399 E2.82670
G1 X111.823 Y190.439 E0.09230
G1 X133.311 Y211.927 E2.69617
G1 X132.271 Y211.927 E0.09230
G1 X111.823 Y191.479 E2.56563
G1 X111.823 Y192.520 E0.09230
G1 X131.230 Y211.927 E2.43510
G1 X130.190 Y211.927 E0.09230
G1 X111.823 Y193.560 E2.30457
G1 X111.823 Y194.600 E0.09230
G1 X129.150 Y211.927 E2.17404
G1 X128.110 Y211.927 E0.09230
G1 X111.823 Y195.640 E2.04351
G1 X111.823 Y196.681 E0.09230
G1 X127.069 Y211.927 E1.91298
G1 X126.029 Y211.927 E0.09230
G1 X111.823 Y197.721 E1.78245
G1 X111.823 Y198.761 E0.09230
G1 X124.989 Y211.927 E1.65191
G1 X123.948 Y211.927 E0.09230
G1 X111.823 Y199.802 E1.52138
G1 X111.823 Y200.842 E0.09230
G1 X122.908 Y211.927 E1.39085
G1 X121.868 Y211.927 E0.09230
G1 X111.823 Y201.882 E1.26032
G1 X111.823 Y202.923 E0.09230
G1 X120.827 Y211.927 E1.12979
G1 X119.787 Y211.927 E0.09230
G1 X111.823 Y203.963 E0.99926
G1 X111.823 Y205.003 E0.09230
G1 X118.747 Y211.927 E0.86873
G1 X117.706 Y211.927 E0.09230
G1 X111.823 Y206.044 E0.73819
G1 X111.823 Y207.084 E0.09230
G1 X116.666 Y211.927 E0.60766
G1 X115.626 Y211.927 E0.09230
G1 X111.823 Y208.124 E0.47713
G1 X111.823 Y209.165 E0.09230
G1 X114.585 Y211.927 E0.34660
G1 X113.545 Y211.927 E0.09230
G1 X111.823 Y210.205 E0.21607
G1 X111.823 Y211.245 E0.09230
